src/assets/icons/sort-alpha-up-alt.svg

<svg width="14" height="14" viewBox="0 0 14 14" fill="none" xmlns="http://www.w3.org/2000/svg">
<g id="sort-alpha-up-alt">
<g clip-path="url(#clip0_156_4679)">
<g id="Vector">
<path d="M4.09203 0.197818C4.02971 0.135491 3.95473 0.085812 3.87163 0.0514872C3.70633 -0.0171624 3.51935 -0.0171624 3.35405 0.0514872C3.27095 0.085812 3.19597 0.135491 3.13365 0.197818L0.875438 2.45603C0.610775 2.72069 0.610775 3.14975 0.875438 3.41441C1.1401 3.67908 1.56916 3.67908 1.83382 3.41441L2.93583 2.31241V13.3225C2.93583 13.6965 3.23933 14 3.61329 14C3.98725 14 4.29075 13.6965 4.29075 13.3225V2.31241L5.39276 3.41441C5.52464 3.54629 5.69807 3.61314 5.8715 3.61314C6.04493 3.61314 6.21836 3.5472 6.35024 3.41441C6.61491 3.14975 6.61491 2.72069 6.35024 2.45603L4.09203 0.197818Z" fill="black"/>
<path fill-rule="evenodd" clip-rule="evenodd" d="M13.283 12.6442L11.7384 8.32015C11.5857 7.92993 11.2325 7.67792 10.8387 7.67792C10.4449 7.67792 10.0926 7.92993 9.9327 8.33912L8.39441 12.6442C8.26795 12.9965 8.45132 13.384 8.8045 13.5095C9.15588 13.636 9.54429 13.4517 9.66984 13.0994L9.92005 12.3985H11.7564L12.0066 13.0994C12.1051 13.3767 12.3661 13.5493 12.6444 13.5493C12.7202 13.5493 12.797 13.5366 12.872 13.5095C13.2261 13.384 13.4094 12.9956 13.283 12.6442ZM10.4051 11.0427L10.8396 9.82773L11.2741 11.0427H10.4051Z" fill="black"/>
<path d="M9.59666 6.32301C9.18115 6.32301 8.81893 6.07732 8.65002 5.68168C8.47117 5.26526 8.55607 4.78833 8.86409 4.46586L11.4177 1.80569H9.25883C8.88487 1.80569 8.58137 1.50218 8.58137 1.12822C8.58137 0.754263 8.88487 0.45076 9.25883 0.45076H12.0698C12.4872 0.45076 12.8512 0.69826 13.021 1.09571C13.1999 1.51573 13.114 1.99628 12.8042 2.31785L10.2606 4.96808H12.4203C12.7943 4.96808 13.0978 5.27159 13.0978 5.64555C13.0978 6.01951 12.7943 6.32301 12.4203 6.32301H9.59666Z" fill="black"/>
</g>
</g>
</g>
<defs>
<clipPath id="clip0_156_4679">
<rect width="14" height="14" fill="white"/>
</clipPath>
</defs>
</svg>

<svg xmlns="http://www.w3.org/2000/svg" fill="none" viewBox="0 0 14 14"><g fill="#000" clip-path="url(#a)"><path d="M4.092.198A.68.68 0 0 0 3.354.05a.7.7 0 0 0-.22.147L.875 2.456a.678.678 0 1 0 .959.958l1.102-1.102v11.01a.678.678 0 0 0 1.355 0V2.313l1.102 1.102a.676.676 0 0 0 .957 0 .68.68 0 0 0 0-.958z"/><path fill-rule="evenodd" d="M13.283 12.644 11.738 8.32c-.152-.39-.505-.642-.9-.642-.393 0-.745.252-.905.661l-1.539 4.305a.677.677 0 1 0 1.275.455l.251-.7h1.836l.25.7a.677.677 0 1 0 1.277-.455m-2.878-1.601.435-1.215.434 1.215z" clip-rule="evenodd"/><path d="M9.597 6.323c-.416 0-.778-.246-.947-.641a1.12 1.12 0 0 1 .214-1.216l2.554-2.66h-2.16a.678.678 0 0 1 0-1.355h2.812c.417 0 .781.247.951.645.179.42.093.9-.217 1.222l-2.543 2.65h2.16a.678.678 0 0 1 0 1.355z"/></g><defs><clipPath id="a"><path fill="#fff" d="M0 0h14v14H0z"/></clipPath></defs></svg>
